rtdata/profiles/Pop/Pop 4 BW.pp3
[Exposure]
Auto=false
Clip=0.02
Compensation=0.66
Brightness=0
Contrast=0
Saturation=0
Black=0
HighlightCompr=70
HighlightComprThreshold=0
ShadowCompr=50
CurveMode=SatAndValueBlending
CurveMode2=Standard
Curve=3;0;0;0.084;0;0.187;0.188;0.587;0.742;1;1;
Curve2=0;

[HLRecovery]
Enabled=true
Method=Blend

[Channel Mixer]
Red=1000;0;0;;
Green=0;1000;0;
Blue=0;0;1000;

[Black & White]
Enabled=true
Method=ChannelMixer
Auto=true
ComplementaryColors=true
Setting=RGB-Rel
Filter=None
MixerRed=-100
MixerOrange=33
MixerYellow=33
MixerGreen=-100
MixerCyan=33
MixerBlue=0
MixerMagenta=33
MixerPurple=33
GammaRed=0
GammaGreen=0
GammaBlue=0
Algorithm=SP
LuminanceCurve=0;
BeforeCurveMode=Standard
AfterCurveMode=Standard
BeforeCurve=0;
AfterCurve=0;

[Luminance Curve]
Brightness=0
Contrast=0
Chromaticity=0
AvoidColorShift=false
RedAndSkinTonesProtection=0
LCredsk=true
LCurve=3;0;0;0.212;0.119;0.674;0.773;1;1;
aCurve=0;
bCurve=0;
ccCurve=0;
chCurve=0;
lhCurve=0;
hhCurve=0;
LcCurve=0;
ClCurve=0;

[Vibrance]
Enabled=false

[White Balance]
Setting=Camera
Equal=1

[Color appearance]
Enabled=true
Degree=100
AutoDegree=true
Surround=Average
AdaptLum=16
Badpixsl=0
Model=RawT
Algorithm=QM
J-Light=0
Q-Bright=0
C-Chroma=0
S-Chroma=0
M-Chroma=0
J-Contrast=0
Q-Contrast=0
H-Hue=0
RSTProtection=0
AdaptScene=208
AutoAdapscen=true
SurrSource=false
Gamut=true
Datacie=false
Tonecie=true
CurveMode=Lightness
CurveMode2=Lightness
CurveMode3=Colorfullness
Curve=3;0;0;0.15;0;0.545;1;1;1;
Curve2=0;
Curve3=0;

[EPD]
Enabled=true
Strength=0.25
EdgeStopping=2.4
Scale=0.10
ReweightingIterates=0

[Shadows & Highlights]
Enabled=false

[Gradient]
Enabled=false

[PCVignette]
Enabled=true
Strength=1
Feather=50
Roundness=50

[HSV Equalizer]
HCurve=0;
SCurve=0;
VCurve=0;

[Film Simulation]
Enabled=false

[Wavelet]
Enabled=false

[RGB Curves]
LumaMode=false
rCurve=0;
gCurve=0;
bCurve=0;

[ColorToning]
Enabled=false

[RAW]
CA=true
HotPixelFilter=true
DeadPixelFilter=false
HotDeadPixelThresh=100
