rtdata/profiles/Skintones/Skintones - Studio TM.pp3
[Exposure]
Auto=false
Clip=0.02
Compensation=0
Brightness=0
Contrast=0
Saturation=0
Black=-1500
HighlightCompr=40
HighlightComprThreshold=0
ShadowCompr=0
CurveMode=WeightedStd
CurveMode2=SatAndValueBlending
Curve=3;0;0;0.083003952569169939;0.21343873517786566;1;1;
Curve2=3;0;0;0.063063463161166899;0.13925774599931898;0.86956521739130421;0.76284584980237158;1;1;

[HLRecovery]
Enabled=true
Method=Blend

[Channel Mixer]
Red=1000;0;0;
Green=0;1000;0;
Blue=0;0;1000;

[Black & White]
Enabled=false
Method=Desaturation
Auto=false
ComplementaryColors=true
Setting=NormalContrast
Filter=None
MixerRed=33
MixerOrange=33
MixerYellow=33
MixerGreen=33
MixerCyan=33
MixerBlue=33
MixerMagenta=33
MixerPurple=33
GammaRed=0
GammaGreen=0
GammaBlue=0
LuminanceCurve=0;
BeforeCurveMode=Standard
AfterCurveMode=Standard
BeforeCurve=0;
AfterCurve=0;

[Luminance Curve]
Brightness=0
Contrast=0
Chromaticity=0
AvoidColorShift=false
RedAndSkinTonesProtection=0
LCredsk=true
LCurve=3;0;0;0.15019762845849804;0.02766798418972332;0.31620553359683784;0.23715415019762845;0.49407114624505927;0.50197628458498023;0.92885375494071132;0.99604743083003922;1;1;
aCurve=0;
bCurve=0;
ccCurve=0;
chCurve=0;
lhCurve=0;
hhCurve=0;
LcCurve=0;
ClCurve=0;

[Vibrance]
Enabled=false
Pastels=0
Saturated=0
PSThreshold=0;75;
ProtectSkins=false
AvoidColorShift=false
PastSatTog=true
SkinTonesCurve=0;

[Color appearance]
Enabled=true
Degree=100
AutoDegree=true
Surround=Average
AdaptLum=16
Badpixsl=0
Model=RawT
Algorithm=QM
J-Light=0
Q-Bright=10
C-Chroma=0
S-Chroma=0
M-Chroma=0
J-Contrast=0
Q-Contrast=0
H-Hue=0
RSTProtection=0
AdaptScene=2000
AutoAdapscen=true
SurrSource=false
Gamut=true
Datacie=false
Tonecie=true
CurveMode=Lightness
CurveMode2=Lightness
CurveMode3=Chroma
Curve=3;0;0;0.06584362139917696;0.01234567901234568;0.24279835390946511;0.12757201646090524;0.46502057613168757;0.49324520929459226;0.67901234567901192;0.84773662551440199;1;1;
Curve2=0;
Curve3=1;0;0;0.86008230452674928;1;

[Directional Pyramid Denoising]
Enabled=true
Enhance=false
Luma=0
Ldetail=0
Chroma=15
Method=Lab
Redchro=0
Bluechro=0
Gamma=1.7

[EPD]
Enabled=true
Strength=0.15
EdgeStopping=1.4
Scale=0.25
ReweightingIterates=0

[Shadows & Highlights]
Enabled=false
HighQuality=false
Highlights=10
HighlightTonalWidth=80
Shadows=10
ShadowTonalWidth=80
LocalContrast=0
Radius=30

[Gradient]
Enabled=false
Degree=0
Feather=25
Strength=0.6
CenterX=0
CenterY=0

[PCVignette]
Enabled=false
Strength=0.6
Feather=50
Roundness=50

[HSV Equalizer]
HCurve=0;
SCurve=0;
VCurve=0;

[Film Simulation]
Enabled=false

[Wavelet]
Enabled=false

[RGB Curves]
LumaMode=false
rCurve=0;
gCurve=0;
bCurve=0;

[ColorToning]
Enabled=false

