rtdata/profiles/Generic/Equilibrated.pp3
[Exposure]
Auto=false
Clip=0.02
Compensation=0
Brightness=0
Contrast=0
Saturation=0
Black=0
HighlightCompr=70
HighlightComprThreshold=0
ShadowCompr=50
CurveMode=Standard
CurveMode2=WeightedStd
Curve=3;0;0;0.10641712584710848;0;0.22561403508771805;0.12507568560390137;0.82456140350877249;0.82456140350877249;1;1;
Curve2=3;0;0;0.20585593677025255;0.44367403149511991;0.6315789473684208;0.89473684210526305;1;1;

[HLRecovery]
Enabled=false
Method=Blend

[Channel Mixer]
Red=1000;0;0;;
Green=0;1000;0;
Blue=0;0;1000;

[Black & White]
Enabled=false
Method=Desaturation
Auto=false
ComplementaryColors=true
Setting=NormalContrast
Filter=None
MixerRed=33
MixerOrange=33
MixerYellow=33
MixerGreen=33
MixerCyan=33
MixerBlue=33
MixerMagenta=33
MixerPurple=33
GammaRed=0
GammaGreen=0
GammaBlue=0
LuminanceCurve=0;
BeforeCurveMode=Standard
AfterCurveMode=Standard
BeforeCurve=0;
AfterCurve=0;

[Luminance Curve]
Brightness=0
Contrast=0
Chromaticity=0
AvoidColorShift=false
RedAndSkinTonesProtection=0
LCredsk=true
LCurve=0;
aCurve=0;
bCurve=0;
ccCurve=0;
chCurve=0;
lhCurve=0;
hhCurve=0;
LcCurve=0;
ClCurve=0;

[Vibrance]
Enabled=false
Pastels=0
Saturated=0
PSThreshold=0;75;
ProtectSkins=false
AvoidColorShift=false
PastSatTog=true
SkinTonesCurve=0;

[Color appearance]
Enabled=false
Degree=90
AutoDegree=true
Surround=Average
AdaptLum=16
Badpixsl=0
Model=RawT
Algorithm=No
J-Light=0
Q-Bright=0
C-Chroma=0
S-Chroma=0
M-Chroma=0
J-Contrast=0
Q-Contrast=0
H-Hue=0
RSTProtection=0
AdaptScene=2000
AutoAdapscen=true
SurrSource=false
Gamut=true
Datacie=false
Tonecie=false
CurveMode=Lightness
CurveMode2=Lightness
CurveMode3=Chroma
Curve=0;
Curve2=0;
Curve3=0;

[EPD]
Enabled=false
Strength=0.25
EdgeStopping=1.4
Scale=1
ReweightingIterates=0

[Shadows & Highlights]
Enabled=false
HighQuality=false
Highlights=0
HighlightTonalWidth=80
Shadows=0
ShadowTonalWidth=80
LocalContrast=0
Radius=40

[Gradient]
Enabled=false
Degree=0
Feather=25
Strength=0.6
CenterX=0
CenterY=0

[PCVignette]
Enabled=false
Strength=0.6
Feather=50
Roundness=50

[HSV Equalizer]
HCurve=0;
SCurve=0;
VCurve=0;

[Film Simulation]
Enabled=false

[Wavelet]
Enabled=false

[RGB Curves]
LumaMode=false
rCurve=0;
gCurve=0;
bCurve=0;

[ColorToning]
Enabled=false

